symbols/web/local_activity/materialsymbolssharp/local_activity_grad200_48px.svg

<svg xmlns="http://www.w3.org/2000/svg" height="48" width="48"><path d="M3.2 40.75v-11.9q1.8-.4 3.075-1.675Q7.55 25.9 7.55 24t-1.275-3.225Q5 19.45 3.2 19.1V7.2h41.65v11.9q-1.8.35-3.05 1.675Q40.55 22.1 40.55 24q0 1.9 1.25 3.175t3.05 1.675v11.9Zm3.65-3.65H41.2v-5.5q-1.8-1.25-3.05-3.225Q36.9 26.4 36.9 24t1.225-4.4q1.225-2 3.075-3.25v-5.5H6.85v5.5q1.85 1.25 3.1 3.25T11.2 24q0 2.4-1.275 4.375T6.85 31.6Zm11.45-3.8 5.7-4.4 5.7 4.4-2.2-6.95 5.35-4.45H26.3L24 15.2l-2.3 6.7h-6.55l5.35 4.45Zm5.75-9.35Z"/></svg>

<svg xmlns="http://www.w3.org/2000/svg" height="48" width="48"><path d="M3.2 40.75V28.85Q5 28.45 6.275 27.175Q7.55 25.9 7.55 24Q7.55 22.1 6.275 20.775Q5 19.45 3.2 19.1V7.2H44.85V19.1Q43.05 19.45 41.8 20.775Q40.55 22.1 40.55 24Q40.55 25.9 41.8 27.175Q43.05 28.45 44.85 28.85V40.75ZM6.85 37.1H41.2V31.6Q39.4 30.35 38.15 28.375Q36.9 26.4 36.9 24Q36.9 21.6 38.125 19.6Q39.35 17.6 41.2 16.35V10.85H6.85V16.35Q8.7 17.6 9.95 19.6Q11.2 21.6 11.2 24Q11.2 26.4 9.925 28.375Q8.65 30.35 6.85 31.6ZM18.3 33.3 24 28.9 29.7 33.3 27.5 26.35 32.85 21.9H26.3L24 15.2L21.7 21.9H15.15L20.5 26.35ZM24.05 23.95Q24.05 23.95 24.05 23.95Q24.05 23.95 24.05 23.95Q24.05 23.95 24.05 23.95Q24.05 23.95 24.05 23.95Q24.05 23.95 24.05 23.95Q24.05 23.95 24.05 23.95Q24.05 23.95 24.05 23.95Q24.05 23.95 24.05 23.95Z"/></svg>
